usr/share/icons/biglinux-icons-material/scalable/apps/gnome-sound-recorder.svg

<svg xmlns="http://www.w3.org/2000/svg" xml:space="preserve" width="24" height="24" viewBox="0 0 6.35 6.35"><defs><radialGradient id="a" cx="0" cy="0" r="1" fx="0" fy="0" gradientTransform="matrix(0 16.5 -16.5 0 9 .75)" gradientUnits="userSpaceOnUse" spreadMethod="pad"><stop offset="0" style="stop-opacity:1;stop-color:#ffbfcb"/><stop offset="1" style="stop-opacity:1;stop-color:#d86eb0"/></radialGradient><clipPath id="b" clipPathUnits="userSpaceOnUse"><path d="M0 0h49v49H0Z"/></clipPath></defs><path d="M7.195.836c.09 0 .176-.012.258-.035a23.86 23.86 0 0 1 3.231.008 10.26 10.26 0 0 1 2.836.636c1.519.625 2.558 1.711 3.121 3.254.316.93.507 1.887.566 2.867a21.227 21.227 0 0 1-.086 3.696 8.976 8.976 0 0 1-.672 2.488c-.637 1.383-1.672 2.336-3.101 2.859a11.693 11.693 0 0 1-3.575.618 15.998 15.998 0 0 1-4.089-.309c-2.481-.551-4.016-2.066-4.594-4.543a14.244 14.244 0 0 1-.336-3.383c-.027-1.215.101-2.41.387-3.59.609-2.312 2.078-3.746 4.406-4.3A10.27 10.27 0 0 1 7.195.836Z" style="fill:url(#a);fill-rule:evenodd;stroke:none" transform="scale(.35277)"/><path d="M2.84 15.57c-.86-.773-1.445-1.828-1.758-3.156-.07-.32-.129-.644-.18-.969h16.196a8.852 8.852 0 0 1-.653 2.344 5.4 5.4 0 0 1-1.285 1.781z" style="fill:#fff;fill-opacity:1;fill-rule:evenodd;stroke:none" transform="scale(.35277)"/><path d="M4.48 13.508a.845.845 0 0 1-.847.847.846.846 0 1 1 0-1.695c.469 0 .847.379.847.848z" style="fill:#ee6369;fill-opacity:1;fill-rule:nonzero;stroke:none" transform="scale(.35277)"/><g clip-path="url(#b)" opacity=".15" transform="scale(.35277)"><path d="M5.328 13.227h9.606a.28.28 0 0 1 .281.281.28.28 0 0 1-.281.281H5.328a.28.28 0 0 1-.281-.281.28.28 0 0 1 .281-.281z" style="fill:#000;fill-opacity:1;fill-rule:nonzero;stroke:none"/></g><path d="M5.328 13.227h5.93c.156 0 .285.125.285.281a.283.283 0 0 1-.285.281h-5.93a.28.28 0 0 1-.281-.281.28.28 0 0 1 .281-.281z" style="fill:#d86eb0;fill-opacity:1;fill-rule:nonzero;stroke:none" transform="scale(.35277)"/><path d="M15.488 3.145c-1.761.05-3.648.75-5.09 2.515a13.066 13.066 0 0 1-1.64 1.695C7.129 6.617 5.945 5.688 4.824 5.25a6.877 6.877 0 0 0-1.828-.418c-.16-.309-.308-.609-.453-.894a4.615 4.615 0 0 0-.43-.676c-.082.113-.16.226-.23.347.105.153.211.325.308.512.11.211.219.441.34.676a10.557 10.557 0 0 0-1.219.023 7.287 7.287 0 0 0-.128.418c.25-.023.504-.039.754-.043.269-.004.542 0 .812.02.352.672.766 1.375 1.34 1.996a5.306 5.306 0 0 0 2.348 1.484 3.833 3.833 0 0 1-1.555.121c-1.633-.222-2.899-1.257-3.723-3.5a10.17 10.17 0 0 0-.152.68c.871 1.973 2.191 2.992 3.82 3.215.102.016.203.023.305.027.699.043 1.371-.105 2-.375.355.067.73.114 1.137.125a8.67 8.67 0 0 0 2.953-.422c.816.161 1.718.25 2.726.231 1.164-.024 2.219-.531 3.235-1.52-.016-.168-.032-.339-.055-.507-1.035 1.089-2.055 1.605-3.188 1.628a12.406 12.406 0 0 1-2.003-.117 6.018 6.018 0 0 0 2.566-2.211h.004c.523-.758 1.14-1.492 1.851-2.035a4.47 4.47 0 0 0-.195-.359c-.781.582-1.441 1.379-1.988 2.172h-.004v.004c-.746 1.152-1.793 1.886-2.965 2.304a11.288 11.288 0 0 1-2.047-.629 13.4 13.4 0 0 0 1.543-1.617c1.367-1.676 3.129-2.324 4.793-2.371.199-.004.399 0 .594.012a7.473 7.473 0 0 0-.281-.406h-.321zM3.227 5.262c.503.066.996.179 1.453.355.992.387 2.14 1.281 3.734 2.024a6.501 6.501 0 0 1-.476.343c-.278.184-.567.34-.86.469a4.86 4.86 0 0 1-2.695-1.515c-.477-.512-.84-1.094-1.156-1.676Zm5.597 2.562c.524.223 1.059.41 1.606.555a8.65 8.65 0 0 1-2.149.211c-.179-.004-.347-.02-.515-.035a8.745 8.745 0 0 0 1.058-.731Z" style="fill:#f6bdd2;fill-opacity:1;fill-rule:nonzero;stroke:none" transform="scale(.35277)"/></svg>

<?xml version="1.0" encoding="UTF-8" standalone="no"?>
<svg
   width="24"
   height="24"
   viewBox="0 0 6.349875 6.349875"
   version="1.1"
   id="svg44574"
   sodipodi:docname="gnome-sound-recorder.svg"
   xml:space="preserve"
   inkscape:version="1.2.2 (b0a8486541, 2022-12-01)"
   inkscape:export-filename="gnome-sound-recorder.pdf"
   inkscape:export-xdpi="96"
   inkscape:export-ydpi="96"
   xmlns:inkscape="http://www.inkscape.org/namespaces/inkscape"
   xmlns:sodipodi="http://sodipodi.sourceforge.net/DTD/sodipodi-0.dtd"
   xmlns="http://www.w3.org/2000/svg"
   xmlns:svg="http://www.w3.org/2000/svg"><defs
     id="defs44578"><linearGradient
       id="paint0_linear_3_200"
       x1="11.9997"
       y1="0.99970198"
       x2="12"
       y2="12"
       gradientUnits="userSpaceOnUse"
       gradientTransform="matrix(0.26457812,0,0,0.26457812,-32.76595,2.3596955)"><stop
         stop-color="#FFD996"
         id="stop44709" /><stop
         offset="1"
         stop-color="#FFB32B"
         id="stop44711" /></linearGradient><radialGradient
       id="paint0_radial_3_321"
       cx="0"
       cy="0"
       r="1"
       gradientUnits="userSpaceOnUse"
       gradientTransform="matrix(0,5.8207186,-5.8207186,0,8.4664984,5.9121786)"><stop
         stop-color="#555555"
         id="stop2702"
         offset="0"
         style="stop-color:#ffbfcb;stop-opacity:1;" /><stop
         offset="1"
         stop-color="#222222"
         id="stop2704"
         style="stop-color:#d86eb0;stop-opacity:1;" /></radialGradient><radialGradient
       fx="0"
       fy="0"
       cx="0"
       cy="0"
       r="1"
       gradientUnits="userSpaceOnUse"
       gradientTransform="matrix(0,16.5,-16.5,0,8.999995,0.750066)"
       spreadMethod="pad"
       id="radialGradient51088"><stop
         style="stop-opacity:1;stop-color:#ffbfcb"
         offset="0"
         id="stop51084" /><stop
         style="stop-opacity:1;stop-color:#d86eb0"
         offset="1"
         id="stop51086" /></radialGradient><clipPath
       clipPathUnits="userSpaceOnUse"
       id="clipPath51102"><path
         d="M 0,0 H 49 V 49 H 0 Z"
         id="path51100" /></clipPath><radialGradient
       fx="0"
       fy="0"
       cx="0"
       cy="0"
       r="1"
       gradientUnits="userSpaceOnUse"
       gradientTransform="matrix(0,16.5,-16.5,0,8.999995,0.750066)"
       spreadMethod="pad"
       id="radialGradient51088-0"><stop
         style="stop-opacity:1;stop-color:#ffbfcb"
         offset="0"
         id="stop51084-6" /><stop
         style="stop-opacity:1;stop-color:#d86eb0"
         offset="1"
         id="stop51086-2" /></radialGradient><clipPath
       clipPathUnits="userSpaceOnUse"
       id="clipPath51102-6"><path
         d="M 0,0 H 49 V 49 H 0 Z"
         id="path51100-1" /></clipPath></defs><sodipodi:namedview
     id="namedview44576"
     pagecolor="#ffffff"
     bordercolor="#000000"
     borderopacity="0.25"
     inkscape:showpageshadow="2"
     inkscape:pageopacity="0.0"
     inkscape:pagecheckerboard="0"
     inkscape:deskcolor="#d1d1d1"
     showgrid="false"
     inkscape:zoom="4.8282135"
     inkscape:cx="-40.076935"
     inkscape:cy="46.704646"
     inkscape:window-width="2560"
     inkscape:window-height="1000"
     inkscape:window-x="1680"
     inkscape:window-y="0"
     inkscape:window-maximized="1"
     inkscape:current-layer="svg44574" /><g
     id="g51072"
     transform="matrix(0.35277082,0,0,0.35277082,-1.1961624e-4,-9.2306512e-6)"><g
       id="g51074"><g
         id="g51076"><g
           id="g51082"><path
             d="m 7.195,0.836 c 0.09,0 0.176,-0.012 0.258,-0.035 1.078,-0.071 2.156,-0.067 3.231,0.008 0.976,0.078 1.921,0.289 2.836,0.636 1.519,0.625 2.558,1.711 3.121,3.254 0.316,0.93 0.507,1.887 0.566,2.867 0.078,1.235 0.051,2.465 -0.086,3.696 -0.105,0.863 -0.328,1.691 -0.672,2.488 -0.637,1.383 -1.672,2.336 -3.101,2.859 C 12.191,17 11,17.207 9.773,17.227 8.398,17.301 7.035,17.195 5.684,16.918 3.203,16.367 1.668,14.852 1.09,12.375 0.844,11.262 0.73,10.133 0.754,8.992 0.727,7.777 0.855,6.582 1.141,5.402 1.75,3.09 3.219,1.656 5.547,1.102 6.09,0.969 6.641,0.879 7.195,0.836 Z"
             style="fill:url(#radialGradient51088-0);fill-rule:evenodd;stroke:none"
             id="path51090" /></g></g></g><path
       d="M 2.84,15.57 C 1.98,14.797 1.395,13.742 1.082,12.414 1.012,12.094 0.953,11.77 0.902,11.445 h 16.196 c -0.11,0.813 -0.328,1.594 -0.653,2.344 -0.324,0.707 -0.754,1.301 -1.285,1.781 z"
       style="fill:#ffffff;fill-opacity:1;fill-rule:evenodd;stroke:none"
       id="path51092" /><path
       d="m 4.48,13.508 c 0,0.469 -0.378,0.847 -0.847,0.847 -0.469,0 -0.848,-0.378 -0.848,-0.847 0,-0.469 0.379,-0.848 0.848,-0.848 0.469,0 0.847,0.379 0.847,0.848 z"
       style="fill:#ee6369;fill-opacity:1;fill-rule:nonzero;stroke:none"
       id="path51094" /><g
       id="g51096"><g
         id="g51098" /><g
         id="g51110"><g
           clip-path="url(#clipPath51102-6)"
           opacity="0.15"
           id="g51108"><g
             id="g51106"><path
               d="m 5.328,13.227 h 9.606 c 0.156,0 0.281,0.125 0.281,0.281 0,0.156 -0.125,0.281 -0.281,0.281 H 5.328 c -0.156,0 -0.281,-0.125 -0.281,-0.281 0,-0.156 0.125,-0.281 0.281,-0.281 z"
               style="fill:#000000;fill-opacity:1;fill-rule:nonzero;stroke:none"
               id="path51104" /></g></g></g></g><path
       d="m 5.328,13.227 h 5.93 c 0.156,0 0.285,0.125 0.285,0.281 0,0.156 -0.129,0.281 -0.285,0.281 h -5.93 c -0.156,0 -0.281,-0.125 -0.281,-0.281 0,-0.156 0.125,-0.281 0.281,-0.281 z"
       style="fill:#d86eb0;fill-opacity:1;fill-rule:nonzero;stroke:none"
       id="path51112" /><path
       d="M 15.488,3.145 C 13.727,3.195 11.84,3.895 10.398,5.66 9.922,6.242 9.367,6.84 8.758,7.355 7.129,6.617 5.945,5.688 4.824,5.25 4.246,5.023 3.625,4.895 2.996,4.832 2.836,4.523 2.688,4.223 2.543,3.938 2.41,3.684 2.266,3.461 2.113,3.262 2.031,3.375 1.953,3.488 1.883,3.609 1.988,3.762 2.094,3.934 2.191,4.121 2.301,4.332 2.41,4.562 2.531,4.797 2.125,4.781 1.719,4.789 1.312,4.82 1.266,4.957 1.223,5.094 1.184,5.238 1.434,5.215 1.688,5.199 1.938,5.195 2.207,5.191 2.48,5.195 2.75,5.215 3.102,5.887 3.516,6.59 4.09,7.211 4.727,7.906 5.539,8.418 6.438,8.695 5.934,8.836 5.418,8.887 4.883,8.816 3.25,8.594 1.984,7.559 1.16,5.316 1.152,5.34 1.145,5.367 1.141,5.391 1.09,5.59 1.047,5.793 1.008,5.996 c 0.871,1.973 2.191,2.992 3.82,3.215 0.102,0.016 0.203,0.023 0.305,0.027 0.699,0.043 1.371,-0.105 2,-0.375 0.355,0.067 0.73,0.114 1.137,0.125 0.996,0.024 2.007,-0.105 2.953,-0.422 0.816,0.161 1.718,0.25 2.726,0.231 1.164,-0.024 2.219,-0.531 3.235,-1.52 C 17.168,7.109 17.152,6.938 17.129,6.77 16.094,7.859 15.074,8.375 13.941,8.398 13.215,8.414 12.555,8.367 11.938,8.281 12.941,7.816 13.836,7.102 14.504,6.07 h 0.004 C 15.031,5.312 15.648,4.578 16.359,4.035 16.301,3.914 16.234,3.793 16.164,3.676 15.383,4.258 14.723,5.055 14.176,5.848 H 14.172 V 5.852 C 13.426,7.004 12.379,7.738 11.207,8.156 10.508,8.012 9.82,7.801 9.16,7.527 9.719,7.031 10.234,6.492 10.703,5.91 12.07,4.234 13.832,3.586 15.496,3.539 c 0.199,-0.004 0.399,0 0.594,0.012 C 16,3.41 15.906,3.277 15.809,3.145 c -0.11,0 -0.215,0 -0.321,0 z M 3.227,5.262 C 3.73,5.328 4.223,5.441 4.68,5.617 5.672,6.004 6.82,6.898 8.414,7.641 8.258,7.762 8.102,7.879 7.938,7.984 7.66,8.168 7.371,8.324 7.078,8.453 5.875,8.207 5.031,7.641 4.383,6.938 3.906,6.426 3.543,5.844 3.227,5.262 Z M 8.824,7.824 C 9.348,8.047 9.883,8.234 10.43,8.379 9.73,8.543 9.004,8.605 8.281,8.59 8.102,8.586 7.934,8.57 7.766,8.555 7.898,8.477 8.027,8.398 8.152,8.316 8.383,8.164 8.605,8 8.824,7.824 Z"
       style="fill:#f6bdd2;fill-opacity:1;fill-rule:nonzero;stroke:none"
       id="path51114" /></g></svg>
